X:21201 
T:WISE NORA 
B:DMI.0126
Z:Nordberg/Black
N:One of the "big tunes" in the Irish tradition. Also
known by its Gaelic name "Nora Crion(n)a".
R:jig
%Q:1/4=160
M:6/8
L:1/8
K:G
A|GAG G2A|B2G d2B|GAG G2B|A2B dcA|
GAG G2A|BAG ABc|d2e fef|A2B cB:|
%
c|ded d2c|B2G d2B|ded d2B|A2B cBA|
ded d2c|BAG ABc|d2e fef|A2B cB:|
%
A|BGG dGG|BAG dBG|AFF cFF|AFA cBA|
BGG dGG|BAG ABc|d2e fef|A2B cB:|
%
F|GBd GBd|GBd dcB|GBd GBd|A2B cBA|
GBd GBd|GBd dcB|GBd fef|A2B cB:|
%
F|GBd gfg|agf g3|BGd g2B|A2B cBA|
GBd gfg|agf g2a|bag agf|A2B cB:|
%
c|dBG GDG|BGB d2B|dBG GDG|A2B cBA|
dBG GDG|BGB dcB|GBd fef|1 "thru"A2B cB:|
[2 "final"A2B cAF|G6|]

%%%

